X: 1331
T: An Paistin Fionn
R: hornpipe
M: 4/4
K: Edorian
Bd|:"Em"egfe "Bm7"deed|"G"geag "Bm7" f2 gf|"Em" efed BAGA|"Bm7add9"B2 cA B2(3Bcd|
"Em" g2 fe "Bm7"deed|"G"baag "Bm7"f2 gf|"C"efed "Am7"BAFB|1 "Bm7"E2 ED "Em"E2 (3Bcd:|2 "Bm7"E2 ED "Em"E2 EF||
"A"G2 Bc "G"dB ~B2|"A"(3cBA ce "G"dBBA|"G"G2 Bc "D"dBBA|"Em"Beed e2 EF|
"G"G2 Bc "D"dBBA|"Em"(3Bcd ef "C"g3 f|"Am7"e2 ed "Bm7"BA (3FED|"Em" E2 ED E2 EF||
"A"G2 Bc "G"dB ~B2|"A"(3cBA ce "G"dBBA|"G"G2 Bc "D"dBBA|"Em"Begf e2 EF|
"G"G2 Bc "D"dBBA|"Em"(3Bcd eg "Bm7"b2 af|"C"e2 ed "Am7" BA (3FED|"Bm7" E2 ED "Em"E4||

